svgs/duotone/circle-up.svg

<svg xmlns="http://www.w3.org/2000/svg" viewBox="0 0 512 512"><!-- Font Awesome Pro 6.0.0-alpha2 by @fontawesome - https://fontawesome.com License - https://fontawesome.com/license (Commercial License) --><defs><style>.fa-secondary{opacity:.4}</style></defs><path d="M256 16C123.42 16 16 123.42 16 256S123.42 496 256 496C388.582 496 496 388.58 496 256S388.582 16 256 16ZM382.781 246.125C380.312 252.109 374.469 256 368 256H304V352C304 369.673 289.673 384 272 384H240C222.327 384 208 369.673 208 352V256H144C137.531 256 131.688 252.109 129.219 246.125C126.734 240.141 128.109 233.266 132.688 228.688L244.688 116.688C250.935 110.44 261.065 110.44 267.312 116.688L379.312 228.688C383.891 233.266 385.266 240.141 382.781 246.125Z" class="fa-secondary"/><path d="M382.785 246.125C380.316 252.109 374.472 256 368.004 256H304.004V352C304.004 369.673 289.677 384 272.004 384H240.004C222.33 384 208.004 369.673 208.004 352V256H144.004C137.535 256 131.691 252.109 129.222 246.125C126.738 240.141 128.113 233.266 132.691 228.688L244.691 116.688C250.939 110.44 261.068 110.44 267.316 116.688L379.316 228.688C383.894 233.266 385.269 240.141 382.785 246.125Z" class="fa-primary"/></svg>

<svg xmlns="http://www.w3.org/2000/svg" viewBox="0 0 512 512"><!--! Font Awesome Pro 6.3.0 by @fontawesome - https://fontawesome.com License - https://fontawesome.com/license (Commercial License) Copyright 2023 Fonticons, Inc. --><defs><style>.fa-secondary{opacity:.4}</style></defs><path class="fa-primary" d="M382.8 246.1C380.3 252.1 374.5 256 368 256h-64v96c0 17.67-14.33 32-32 32h-32c-17.67 0-32-14.33-32-32V256h-64C137.5 256 131.7 252.1 129.2 246.1C126.7 240.1 128.1 233.3 132.7 228.7l112-112c6.248-6.248 16.38-6.248 22.62 0l112 112C383.9 233.3 385.3 240.1 382.8 246.1z"/><path class="fa-secondary" d="M256 0C114.6 0 0 114.6 0 256s114.6 256 256 256c141.4 0 256-114.6 256-256S397.4 0 256 0zM382.8 246.1C380.3 252.1 374.5 256 368 256h-64v96c0 17.67-14.33 32-32 32h-32c-17.67 0-32-14.33-32-32V256h-64C137.5 256 131.7 252.1 129.2 246.1C126.7 240.1 128.1 233.3 132.7 228.7l112-112c6.248-6.248 16.38-6.248 22.62 0l112 112C383.9 233.3 385.3 240.1 382.8 246.1z"/></svg>
